X: 16
T:I Belong to Glasgow
% Nottingham Music Database
S:Kevin Briggs
M:3/4
L:1/4
K:G
d|"G"G2A|"G"B2c|"G"dg2-|"G"g3|"C"g2a|"C"g2e|"G"d3|"D7"cBA|
"G"GGA|"G"BBc|"G"d2e|"G"f2g|"A7"a2^g|"A7"a2b|"D7"a3|"D7"def|
"G"gga|"G"bag|"C"a2g|"C"e2d|"C"efg|"G"d2B|"Am"A3-|"D7"Agg|
"G"ggg|"C"gfe|"G"ded|"E7"Bcd|"Am"efg|"D7"a2f|"G"gdB|"G"G2:|


